X:1
T:Title
%%score ( 1 2 ) { 3 | 4 }
L:1/8
Q:1/4=108
M:3/4
K:C
V:1 treble nm="Grand Piano, Soprano"
V:2 treble 
V:3 bass nm="Choir Pad, Indianola, 76.76 D"
V:4 bass 
V:1
 CE [EG]2 [EG]2 | [_EA]2 [=EG]2 [EG]2 | [Gc]2 [Ac]2 [GB]2 | [FA]2 [FA]2 [EG]2 | C[CE] [EG]2 [EG]2 | %5
w: By~James~McGranahan,~1879 * * *|||||
 [_EA]2 [=EG]2 [EG]2 | c2 z2 z2 | [FB]2 [Ec]4 | [Ec]>[Ec] [Fc]2 [FB]2 | [FA]2 [FA]2 [EG]2 | %10
w: |||||
 [EG]2 [EG]2 [DF]2 | [FA]2 [FA]2 [EG]2 | [Ge]>[Ge] [Ge]2 [Gd]2 | [_Bc]2 [Ac]2 [G=B]2 | %14
w: ||||
 [FA][FA] [EG]2 [Ec]2 | B2 z2 z2 | z6 |] %17
w: |||
V:2
 x6 | x6 | x6 | x6 | x6 | x6 | EG [FB]2 [EG]2 | x6 | x6 | x6 | x6 | x6 | x6 | x6 | x6 | DF [Ec]4- | %16
 [Ec]4 z2 |] %17
V:3
 E,G, C2 G,2 | ^F,2 G,2[K:treble] C2 | C2 C2 C2 | C2 C4 | E,G, C2 G,2 | ^F,2 G,2 C2 | G,2 z2 z2 | %7
 z2 G,4 | G,>G, A,2 B,2 | C2 C2 C2 | C2 C2 B,2 | B,2 C4 | C>C C2 B,2 | C2 C2 C2 | %14
 CC[K:bass] C2 G,2 | G,2 G,4- | G,4 z2 |] %17
V:4
 C,2 C,2 C,2 | C,2 C,2 C,2 | E,2 F,2 F,2 | F,2 C,4 | C,C, C,2 C,2 | C,2 C,2 C,2 | C,E, G,2 G,2 | %7
 G,2 C,4 | C,>C, F,2 F,2 | F,2 C,2 C,2 | C,2 G,,2 G,,2 | G,,2 C,4 | C,>C, C,2 D,2 | E,2 F,2 F,2 | %14
 F,F, G,2 z2 | z2 C,4- | C,4 z2 |] %17

